X:6
T: GANG MER NIT UEBER MIS MAETTELI
N: E1005
O: Europa, Mitteleuropa, Deutschland; Frankreich, Elsass; Schweiz
R: Tanz - Lied
M: 3/8
L: 1/16
K: G
 | B3AB2 | c3Bc2 | d3ed2
B3AB2 | c3Bc2 | d4z2
B3cB2 | A3BA2 | G2GBD2
B3dB2 | A3BA2 | G4z2

